incomeartour/img/icons/info-icon.svg

<svg width="5" height="10" viewBox="0 0 5 10" fill="none" xmlns="http://www.w3.org/2000/svg">
<path d="M4.31798 8.01743C4.28044 7.96243 4.20842 7.94287 4.14828 7.97137C3.48295 8.28633 2.72781 8.61932 2.57959 8.64842C2.57586 8.64509 2.56993 8.639 2.56216 8.62847C2.54208 8.60127 2.53231 8.56573 2.53231 8.5198C2.53231 8.14345 2.81637 6.99856 3.37655 5.11711C3.84888 3.5363 3.9035 3.20899 3.9035 3.10032C3.9035 2.93256 3.83927 2.79082 3.71769 2.69038C3.6022 2.59513 3.44083 2.54688 3.23811 2.54688C2.90089 2.54688 2.51006 2.6749 2.04326 2.93827C1.5909 3.19359 1.08642 3.62602 0.543912 4.22355C0.501446 4.27035 0.497007 4.34031 0.533221 4.39212C0.56949 4.44395 0.636748 4.46368 0.695238 4.43986C0.8857 4.36213 1.84289 3.97003 1.98241 3.88239C2.09666 3.81077 2.19556 3.77442 2.27637 3.77442C2.27927 3.77442 2.28176 3.77453 2.28384 3.77469C2.28482 3.78005 2.28574 3.78822 2.28574 3.79994C2.28574 3.88241 2.26877 3.98004 2.23551 4.08963C1.41985 6.73237 1.02336 8.35245 1.02336 9.04253C1.02336 9.28606 1.09105 9.48213 1.22451 9.6252C1.36052 9.77117 1.54397 9.84517 1.76978 9.84517C2.01042 9.84517 2.30331 9.74464 2.66512 9.53786C3.01525 9.33779 3.54964 8.89767 4.2989 8.19222C4.34743 8.14656 4.35552 8.07243 4.31798 8.01743Z" fill="#B7B7B7"/>
<path d="M4.29157 0.360893C4.15827 0.224454 3.9877 0.155273 3.78465 0.155273C3.53186 0.155273 3.31168 0.255174 3.13031 0.452213C2.95184 0.646005 2.86133 0.883806 2.86133 1.15898C2.86133 1.3764 2.92799 1.55658 3.05945 1.69448C3.19267 1.83447 3.36094 1.90543 3.55952 1.90543C3.80198 1.90543 4.02097 1.79993 4.21037 1.59185C4.39648 1.38742 4.49086 1.14708 4.49086 0.877499C4.49088 0.670337 4.42384 0.496547 4.29157 0.360893Z" fill="#B7B7B7"/>
</svg>

<svg width="5" height="10" fill="none" xmlns="http://www.w3.org/2000/svg"><path d="M4.318 8.017a.135.135 0 00-.17-.046c-.665.315-1.42.648-1.568.677a.131.131 0 01-.018-.02.177.177 0 01-.03-.108c0-.377.284-1.521.845-3.403.472-1.58.527-1.908.527-2.017a.513.513 0 00-.186-.41c-.116-.095-.277-.143-.48-.143-.337 0-.728.128-1.195.391-.452.256-.957.688-1.5 1.286a.135.135 0 00.152.216c.19-.078 1.148-.47 1.287-.558a.587.587 0 01.302-.107 1.022 1.022 0 01-.048.315C1.42 6.732 1.023 8.352 1.023 9.043c0 .243.068.44.202.582.136.146.319.22.545.22.24 0 .533-.1.895-.307.35-.2.885-.64 1.634-1.346a.135.135 0 00.019-.175zM4.292.36a.682.682 0 00-.507-.205c-.253 0-.473.1-.655.297a1.01 1.01 0 00-.269.707c0 .217.067.398.198.535.134.14.302.211.5.211.243 0 .462-.105.651-.313.186-.205.28-.445.28-.715a.713.713 0 00-.198-.516z" fill="#B7B7B7"/></svg>
